remix/Document/file-shield-2-fill.svg

<svg viewBox="0 0 24 24" fill="currentColor" xmlns="http://www.w3.org/2000/svg"><path d="M21 10H11V17.3823C11 18.9449 11.7775 20.4053 13.074 21.2742L14.1569 22H3.9934C3.44495 22 3 21.556 3 21.0082V2.9918C3 2.45531 3.44694 2 3.99826 2H15.9968L21 7V10ZM13 12H21V17.3823C21 18.2786 20.5544 19.1156 19.8125 19.6128L17 21.4978L14.1875 19.6128C13.4456 19.1156 13 18.2786 13 17.3823V12Z"/></svg>

<svg viewBox="0 0 24 24" xmlns="http://www.w3.org/2000/svg"><path fill="none" d="M0 0h24v24H0Z"/><path d="M21 10H11v7.38c0 1.56.77 3.02 2.074 3.89l1.08.72H3.99v0c-.55 0-1-.45-1-1V2.974c0-.54.44-1 .99-1H15.97l5.003 5v3Zm-8 2h8v5.38c0 .89-.45 1.73-1.19 2.23l-2.82 1.88 -2.82-1.89v0c-.75-.5-1.19-1.34-1.19-2.24v-5.39Z"/></svg>
